alura/assets/api/cursos/bootcamp-datascience-modulo1.svg

<svg width="36" height="36" viewBox="0 0 36 36" fill="none" xmlns="http://www.w3.org/2000/svg">
<path d="M29.1717 11.6585C29.0253 11.3658 28.6351 11.2195 28.3424 11.3658L25.6107 12.7317L18.6351 9.26827V6.63412C18.6351 6.29265 18.3424 5.99997 18.0009 5.99997C17.6595 5.99997 17.3668 6.29265 17.3668 6.63412V9.26827L10.4399 12.7805L7.70824 11.4146C7.41555 11.2683 7.02531 11.3658 6.87897 11.7073C6.73263 12 6.83019 12.3902 7.17165 12.5366L9.85458 13.9024V22.2439L7.17165 23.6098C6.78141 23.6585 6.68385 24.0488 6.83019 24.3415C6.92775 24.5366 7.17165 24.6829 7.36677 24.6829C7.46433 24.6829 7.5619 24.6829 7.65946 24.6341L10.3912 23.2683L17.3668 26.7317V29.3659C17.3668 29.7073 17.6595 30 18.0009 30C18.3424 30 18.6351 29.7073 18.6351 29.3659V26.7317L22.3424 25.1219C22.6351 24.9756 22.7814 24.6341 22.6839 24.2927C22.5375 24 22.1961 23.8537 21.8546 23.9512L18.0009 25.6585L11.0253 22.1463V13.8536L18.0009 10.3414L24.9766 13.8049V18.7317C24.9766 19.0732 25.2692 19.3658 25.6107 19.3658C25.9522 19.3658 26.2449 19.0732 26.2449 18.7317V13.8536L28.9278 12.4878C29.2205 12.3414 29.318 11.9512 29.1717 11.6585Z" fill="#2A7AE4"/>
<path d="M14.0009 15.122V21.2684C14.0009 22.2928 16.0985 22.7318 18.0009 22.7318C19.9521 22.7318 22.0009 22.244 22.0009 21.2684V15.122C22.0009 14.0976 19.9034 13.6586 18.0009 13.6586C16.0497 13.6098 14.0009 14.0976 14.0009 15.122ZM21.2692 18.1952C21.2204 18.4391 20.0497 18.9269 18.0009 18.9269C15.9521 18.9269 14.7814 18.3903 14.7326 18.1952V16.0489C15.5131 16.4391 16.7814 16.6342 18.0009 16.6342C19.2204 16.6342 20.4887 16.4391 21.2692 16.0489V18.1952ZM21.2692 15.122C21.2204 15.3659 20.0497 15.8537 18.0009 15.8537C15.9521 15.8537 14.7814 15.3172 14.7326 15.122C14.7814 14.8781 15.9521 14.3903 18.0009 14.3903C20.0497 14.3415 21.2204 14.8781 21.2692 15.122Z" fill="#2A7AE4"/>
<path d="M36 18C36 27.9411 27.9411 36 18 36C8.05887 36 0 27.9411 0 18C0 8.05887 8.05887 0 18 0C27.9411 0 36 8.05887 36 18ZM2.13734 18C2.13734 26.7607 9.23929 33.8627 18 33.8627C26.7607 33.8627 33.8627 26.7607 33.8627 18C33.8627 9.23929 26.7607 2.13734 18 2.13734C9.23929 2.13734 2.13734 9.23929 2.13734 18Z" fill="#2A7AE4"/>
</svg>

<svg xmlns="http://www.w3.org/2000/svg" fill="none" viewBox="0 0 36 36"><path fill="#2A7AE4" d="M29.172 11.659c-.147-.293-.537-.44-.83-.293l-2.731 1.366-6.976-3.464V6.634A.646.646 0 0018.001 6a.646.646 0 00-.634.634v2.634L10.44 12.78l-2.732-1.365a.602.602 0 00-.829.292.602.602 0 00.293.83l2.683 1.365v8.342L7.172 23.61c-.39.049-.488.439-.342.732a.662.662 0 00.537.34c.097 0 .195 0 .292-.048l2.732-1.366 6.976 3.464v2.634c0 .341.293.634.634.634a.646.646 0 00.634-.634v-2.634l3.707-1.61c.293-.146.44-.488.342-.83-.146-.292-.488-.438-.83-.34l-3.853 1.706-6.976-3.512v-8.292l6.976-3.513 6.976 3.464v4.927c0 .341.292.634.634.634a.646.646 0 00.634-.634v-4.878l2.683-1.366c.293-.147.39-.537.244-.83z"/><path fill="#2A7AE4" d="M14 15.122v6.146c0 1.025 2.099 1.464 4 1.464 1.952 0 4-.488 4-1.464v-6.146c0-1.024-2.097-1.463-4-1.463-1.95-.05-4 .439-4 1.463zm7.27 3.073c-.05.244-1.22.732-3.27.732-2.048 0-3.219-.537-3.267-.732V16.05c.78.39 2.048.585 3.268.585 1.22 0 2.488-.195 3.268-.585v2.146zm0-3.073c-.05.244-1.22.732-3.27.732-2.048 0-3.219-.537-3.267-.732.048-.244 1.22-.732 3.268-.732 2.049-.049 3.22.488 3.268.732z"/><path fill="#2A7AE4" d="M36 18c0 9.941-8.059 18-18 18S0 27.941 0 18 8.059 0 18 0s18 8.059 18 18zM2.137 18c0 8.76 7.102 15.863 15.863 15.863 8.76 0 15.863-7.102 15.863-15.863C33.863 9.24 26.76 2.137 18 2.137S2.137 9.24 2.137 18z"/></svg>
